X:25
T:Con's Basket of Turf* (j)
B:NFID.152a ("untitled jig")
025cons_bt
S:CC
L:1/8
M:6/8
R:jig
Q:320
K:Am
G|Aee edc|BGB dBG|Aee e^fg|dBG A2G|
Aee edc|BGB dBG|c2d e^fg|dBG A2:|
G|Aaa a^ga|ba^f gde|eaa a^ga|ba^f g2d|
eaa a^ga|ba^f geB|c2d e^fg|dBG A2:|

%%%

